!!!COM: Haydn, Franz Joseph
!!!OPR: Symphony in C Major
!!!OTL:
!!!OMV: 3
!!!SCT: H I:82
!!!SCA: Thematisch-bibliographisches Werkevererzeichnis (A. van Hoboken)
!!!YOR: Offenbach Edition, ca. 1864
!!!EED: Frances Bennion
!!!ENC: Frances Bennion
!!!CDT: 1732/3/31/-1809/5/31/
!!!OCY: Österreich
!!!YEC: Copyright (c) 1994, 2000 Center for Computer Assisted Research in the Humanities
!!!YEM: Rights to all derivative editions reserved.
!!!YEM: Refer to licensing agreement for further details.
!!!YEN: United States of America
**kern	**kern	**kern	**kern	**kern	**kern	**kern	**kern	**kern	**kern	**kern	**kern	**kern	**kern
*k[]	*k[]	*k[]	*k[]	*k[]	*k[]	*k[]	*k[]	*k[]	*k[]	*k[]	*k[]	*k[]	*k[]
*C:	*C:	*C:	*C:	*C:	*C:	*C:	*C:	*C:	*C:	*C:	*C:	*C:	*C:
*clefF4	*clefF4	*clefF	*clefF	*clefC3	*clefF4	*clefF	*clefF	*clefF	*clefF	*clefF	*clefF	*clefF	*clefF4
*M3/4	*M3/4	*M3/4	*M3/4	*M3/4	*M3/4	*M3/4	*M3/4	*M3/4	*M3/4	*M3/4	*M3/4	*M3/4	*M3/4
*tb16	*tb16	*tb16	*tb16	*tb16	*tb16	*tb16	*tb16	*tb16	*tb16	*tb16	*tb16	*tb16	*tb16
=1	=1	=1	=1	=1	=1	=1	=1	=1	=1	=1	=1	=1	=1
2C	4c	2.cc	2.cc	2.e	4c	2cc	2e	2cc	2e	2.cc	2.cc	2.e	4c
.	4C	.	.	.	4C	.	.	.	.	.	.	.	4C
4r	4A	.	.	.	4A	4r	4r	4r	4r	.	.	.	4A
=2	=2	=2	=2	=2	=2	=2	=2	=2	=2	=2	=2	=2	=2
2r	4F	2dd	2dd	2f	4F	2r	2r	2r	2r	2dd	2dd	2f	4F
.	4D	.	.	.	4D	.	.	.	.	.	.	.	4D
4GG	4G	8b	8b	4d	4G	4dd	4g	4dd	4g	8b	8b	4d	4G
.	.	16a	16a	.	.	.	.	.	.	16a	16a	.	.
.	.	16b	16b	.	.	.	.	.	.	16b	16b	.	.
=3	=3	=3	=3	=3	=3	=3	=3	=3	=3	=3	=3	=3	=3
4C	4g	4cc	4cc	4g	4E	4cc	4c	4cc	4c	4cc	4cc	4g	4g
4C	4f	4cc	4cc	4f	4D	4cc	4c	4cc	4c	4cc	4cc	4f	4f
4C	4e	4cc	4cc	4e	4C	4cc	4c	4cc	4c	4cc	4cc	4e	4e
=4	=4	=4	=4	=4	=4	=4	=4	=4	=4	=4	=4	=4	=4
4GG	4d	2.gg	2.gg	4d	4BB	2.g	2.G	2.g	2.G	2.gg	2.gg	4d	4d
2r	4c	.	.	4c	4AA	.	.	.	.	.	.	2r	4c
.	4B	.	.	4B	4GG	.	.	.	.	.	.	.	4B
=5	=5	=5	=5	=5	=5	=5	=5	=5	=5	=5	=5	=5	=5
4C	4c	4cc	4cc	4cc	4A	4cc	4c	4cc	4c	4cc	4cc	4cc	4c
8C	4B	4cc	4cc	4b	4G	8cc	8c	8cc	8c	4cc	4cc	4b	4B
8C	.	.	.	.	.	8cc	8c	8cc	8c	.	.	.	.
8C	4A	4cc	4cc	4a	4F	8cc	8c	8cc	8c	4cc	4cc	4a	4A
8C	.	.	.	.	.	8cc	8c	8cc	8c	.	.	.	.
=6	=6	=6	=6	=6	=6	=6	=6	=6	=6	=6	=6	=6	=6
4C	4G	2.ccc	2.ccc	4g	4E	2cc	2c	2cc	2c	2.ccc	2.ccc	4g	4G
2r	4F	.	.	4f	4D	.	.	.	.	.	.	2r	4F
.	4E	.	.	4e	4C	4r	4r	4r	4r	.	.	.	4E
=7	=7	=7	=7	=7	=7	=7	=7	=7	=7	=7	=7	=7	=7
4GG	4d	4gg	4gg	4d	4B	4g	4G	4g	4G	4gg	4gg	4dd	4d
8GG	4c	4gg	4gg	4c	4A	8g	8G	8g	8G	4gg	4gg	4cc	4c
8GG	.	.	.	.	.	8g	8G	8g	8G	.	.	.	.
8GG	4B	4gg	4gg	4B	4G	8g	8G	8g	8G	4gg	4gg	4b	4B
8GG	.	.	.	.	.	8g	8G	8g	8G	.	.	.	.
=8	=8	=8	=8	=8	=8	=8	=8	=8	=8	=8	=8	=8	=8
4C	4c	2eee	2ee	4c	4c	4cc	4c	4cc	4c	2eee	2eee	2ee	4c
2r	4C	.	.	4C	4C	2r	2r	2r	2r	.	.	.	4C
.	4c	8ccc	8ee	4c	4c	.	.	.	.	8ccc	8ccc	8ee	4c
.	.	8aa	8cc	.	.	.	.	.	.	8aa	8aa	8cc	.
=9	=9	=9	=9	=9	=9	=9	=9	=9	=9	=9	=9	=9	=9
2.r	4D	2gg	2b	4d	4D	2.r	2.r	2.r	2.r	2gg	2gg	2b	4D
.	4d	.	.	4D	4d	.	.	.	.	.	.	.	4d
.	4D	4ff#	4a	4d	4D	.	.	.	.	4ff#	4ff#	4a	4D
=10	=10	=10	=10	=10	=10	=10	=10	=10	=10	=10	=10	=10	=10
4GG	4G	4gg	4g	4G	4G	4g	4G	4g	4G	4gg	4gg	4b	4G
2r	2r	2r	2r	4d	4B	2r	2r	2r	2r	2r	2r	2r	2r
.	.	.	.	4B	4G	.	.	.	.	.	.	.	.
=11	=11	=11	=11	=11	=11	=11	=11	=11	=11	=11	=11	=11	=11
2.r	2.r	4a	4f#	4d	4d	2.r	2.r	2.r	2.r	2.r	4dd	2.r	2.r
.	.	4b	4g	2r	2r	.	.	.	.	.	4dd	.	.
.	.	4cc	4a	.	.	.	.	.	.	.	4dd	.	.
=12	=12	=12	=12	=12	=12	=12	=12	=12	=12	=12	=12	=12	=12
2.r	2.r	2cc	2a	4G	4G	2.r	2.r	2.r	2.r	2.r	8dd	2.r	2.r
.	.	.	.	.	.	.	.	.	.	.	8ff#	.	.
.	.	.	.	2r	2r	.	.	.	.	.	8gg	.	.
.	.	.	.	.	.	.	.	.	.	.	8aa	.	.
.	.	4b	4g	.	.	.	.	.	.	.	8bb	.	.
.	.	.	.	.	.	.	.	.	.	.	8ccc	.	.
=13	=13	=13	=13	=13	=13	=13	=13	=13	=13	=13	=13	=13	=13
2.r	2.r	4a	4c	4d	4D	2.r	2.r	2.r	2.r	2.r	4ddd	2.r	2.r
.	.	4g	4B	2r	2r	.	.	.	.	.	4ddd	.	.
.	.	4f#	4A	.	.	.	.	.	.	.	4ddd	.	.
=14	=14	=14	=14	=14	=14	=14	=14	=14	=14	=14	=14	=14	=14
2.r	2.r	4g	4G	4G	4G	2.r	2.r	2.r	2.r	2.r	4bb	2.r	2.r
.	.	2r	2r	2r	2r	.	.	.	.	.	2r	.	.
=15	=15	=15	=15	=15	=15	=15	=15	=15	=15	=15	=15	=15	=15
2.r	4e	2.r	4g	4e	2.r	2.r	2.r	2.r	2.r	2.r	2.r	2.r	4g
.	4e	.	4g	4e	.	.	.	.	.	.	.	.	4g
.	4e	.	4g	4e	.	.	.	.	.	.	.	.	4g
=16	=16	=16	=16	=16	=16	=16	=16	=16	=16	=16	=16	=16	=16
2.r	4c	8cc	4e	4c	2.r	2.r	2.r	2.r	2.r	2.r	8cc	2.r	4e
.	.	8dd	.	.	.	.	.	.	.	.	8dd	.	.
.	2r	8ee-	2r	2r	.	.	.	.	.	.	8ee-	.	2r
.	.	8ee	.	.	.	.	.	.	.	.	8ee	.	.
.	.	8ff	.	.	.	.	.	.	.	.	8ff	.	.
.	.	8ff#	.	.	.	.	.	.	.	.	8ff#	.	.
=17	=17	=17	=17	=17	=17	=17	=17	=17	=17	=17	=17	=17	=17
2.r	4d	4gg	4f	4d	2.r	2.r	2.r	2.r	2.r	2.r	4gg	2.r	4f
.	4d	2r	4f	4d	.	.	.	.	.	.	2r	.	4f
.	4d	.	4f	4d	.	.	.	.	.	.	.	.	4f
=18	=18	=18	=18	=18	=18	=18	=18	=18	=18	=18	=18	=18	=18
2.r	4G	8ff#	4d	4G	2.r	2.r	2.r	2.r	2.r	2.r	8ff#	2.r	4d
.	.	8gg	.	.	.	.	.	.	.	.	8gg	.	.
.	2r	8aa-	2r	2r	.	.	.	.	.	.	8aa-	.	2r
.	.	8aa	.	.	.	.	.	.	.	.	8aa	.	.
.	.	8bb-	.	.	.	.	.	.	.	.	8bb-	.	.
.	.	8bb	.	.	.	.	.	.	.	.	8bb	.	.
=19	=19	=19	=19	=19	=19	=19	=19	=19	=19	=19	=19	=19	=19
4C	4e	4ccc	4cc	4e	4C	4cc	4c	4cc	4c	4ccc	4ccc	4cc	4e
8C	4f	4ccc	4cc	4f	4D	8cc	8c	8cc	8c	4ccc	4ccc	4cc	4f
8C	.	.	.	.	.	8cc	8c	8cc	8c	.	.	.	.
8C	4g	4ccc	4cc	4g	4E	8cc	8c	8cc	8c	4ccc	4ccc	4cc	4g
8C	.	.	.	.	.	8cc	8c	8cc	8c	.	.	.	.
=20	=20	=20	=20	=20	=20	=20	=20	=20	=20	=20	=20	=20	=20
4C	4f	2aa-	2g#	2.f	2.F	4cc	4c	4cc	4c	2gg#	2gg#	2g#	4f
2r	2r	.	.	.	.	2r	2r	2r	2r	.	.	.	2r
.	.	4aa	4a	.	.	.	.	.	.	4aa	4aa	4a	.
=21	=21	=21	=21	=21	=21	=21	=21	=21	=21	=21	=21	=21	=21
2.r	4c#	4a	4e	4c#	4c#	2.r	2.r	2.r	2.r	4a	2.r	2.r	4e
.	4d	4a	4f	4d	4d	.	.	.	.	4a	.	.	4f
.	4e	4a	4g	4e	4e	.	.	.	.	4a	.	.	4g
=22	=22	=22	=22	=22	=22	=22	=22	=22	=22	=22	=22	=22	=22
2.r	2e	8a	2g	2e	2e	2.r	2.r	2.r	2.r	8a	2.r	2.r	2g
.	.	8cc#	.	.	.	.	.	.	.	8cc#	.	.	.
.	.	8dd	.	.	.	.	.	.	.	8dd	.	.	.
.	.	8ee	.	.	.	.	.	.	.	8ee	.	.	.
.	4d	4ff	4f	4d	4d	.	.	.	.	4ff	.	.	4f
=23	=23	=23	=23	=23	=23	=23	=23	=23	=23	=23	=23	=23	=23
2.r	4B	4g	4d	4B	4B	2.r	2.r	2.r	2.r	4g	2.r	2.r	4d
.	4c	4g	4e	4c	4c	.	.	.	.	4g	.	.	4e
.	4d	4g	4f	4d	4d	.	.	.	.	4g	.	.	4f
=24	=24	=24	=24	=24	=24	=24	=24	=24	=24	=24	=24	=24	=24
2.r	2d	8g	2f	2d	2d	2.r	2.r	2.r	2.r	8g	2.r	2.r	2f
.	.	8b	.	.	.	.	.	.	.	8b	.	.	.
.	.	8cc	.	.	.	.	.	.	.	8cc	.	.	.
.	.	8dd	.	.	.	.	.	.	.	8dd	.	.	.
.	4c	8ee	4e	4c	4c	.	.	.	.	8ee	.	.	4e
.	.	8cc	.	.	.	.	.	.	.	8cc	.	.	.
=25	=25	=25	=25	=25	=25	=25	=25	=25	=25	=25	=25	=25	=25
2.r	2.r	8b	2.a	2f	2F	2.r	2.r	2.r	2.r	8b	2.r	2.r	2.r
.	.	8a	.	.	.	.	.	.	.	8a	.	.	.
.	.	8aa	.	.	.	.	.	.	.	8aa	.	.	.
.	.	8ff	.	.	.	.	.	.	.	8ff	.	.	.
.	.	8dd	.	4f#	4F#	.	.	.	.	8dd	.	.	.
.	.	8cc	.	.	.	.	.	.	.	8cc	.	.	.
=26	=26	=26	=26	=26	=26	=26	=26	=26	=26	=26	=26	=26	=26
2.r	2.r	8cc	4d	2.g	2G	2.r	2.r	2.r	2.r	8cc	2.r	2.r	2.r
.	.	8b	.	.	.	.	.	.	.	8b	.	.	.
.	.	8a	2r	.	.	.	.	.	.	8a	.	.	.
.	.	8g	.	.	.	.	.	.	.	8g	.	.	.
.	.	8a	.	.	4F	.	.	.	.	8a	.	.	.
.	.	8b	.	.	.	.	.	.	.	8b	.	.	.
=27	=27	=27	=27	=27	=27	=27	=27	=27	=27	=27	=27	=27	=27
4C	4E	2.cc 2.e	2.e 2.cc	4g	4E	2cc	2e	2cc	2e	2.cc	2.cc	2.cc	4E
2r	4C	.	.	4e	4C	.	.	.	.	.	.	.	4C
.	4A	.	.	4a	4A	4r	4r	4r	4r	.	.	.	4A
=28	=28	=28	=28	=28	=28	=28	=28	=28	=28	=28	=28	=28	=28
2r	4F	2f 2dd	2f 2dd	4f	4F	2r	2r	2r	2r	2dd	2dd	4a	4F
.	4D	.	.	4d	4D	.	.	.	.	.	.	4f	4D
4GG	4G	8b	8b	4g	4G	4dd	4g	4dd	4g	8b	8b	4d	4G
.	.	16a	16a	.	.	.	.	.	.	16a	16a	.	.
.	.	16b	16b	.	.	.	.	.	.	16b	16b	.	.
=29	=29	=29	=29	=29	=29	=29	=29	=29	=29	=29	=29	=29	=29
4C	4E	4cc	4cc	4g	4E	4cc	4c	4cc	4c	4cc	4cc	4g	4E
8C	4D	4cc	4cc	4f	4D	8cc	8c	8cc	8c	4cc	4cc	4f	4D
8C	.	.	.	.	.	8cc	8c	8cc	8c	.	.	.	.
8C	4C	4cc	4cc	4e	4C	8cc	8c	8cc	8c	4cc	4cc	4e	4C
8C	.	.	.	.	.	8cc	8c	8cc	8c	.	.	.	.
=30	=30	=30	=30	=30	=30	=30	=30	=30	=30	=30	=30	=30	=30
4C	4FF	2aa	2aa	4f	4FF	4cc	4c	4cc	4c	2aa	2aa	2cc	4FF
2r	4F	.	.	4c	4F	2r	2r	2r	2r	.	.	.	4F
.	4D	8ff	8ff	4d	4D	.	.	.	.	8ff	8ff	8ff	4D
.	.	16ee	16ee	.	.	.	.	.	.	16ee	16ee	16ee	.
.	.	16ff	16ff	.	.	.	.	.	.	16ff	16ff	16ff	.
=31	=31	=31	=31	=31	=31	=31	=31	=31	=31	=31	=31	=31	=31
4C	4E	4gg	4gg	4e	4E	4ee	4cc	4ee	4cc	4gg	4gg	4gg	4E
4r	4D	8bb	8bb	4f	4D	4dd	4g	4dd	4g	8bb	8bb	4ff	4D
.	.	16aa	16aa	.	.	.	.	.	.	16aa	16aa	.	.
.	.	16bb	16bb	.	.	.	.	.	.	16bb	16bb	.	.
4C	4C	4ccc	4ccc	4e	4C	4ee	4cc	4ee	4cc	4ccc	4ccc	4ee	4C
=32	=32	=32	=32	=32	=32	=32	=32	=32	=32	=32	=32	=32	=32
4GG	4BB	4ddd	4ddd	2d 2G	4BB	2dd	2g	2dd	2g	4ddd	4ddd	2dd	4BB
8GG	4B	8ff	8ff	.	4B	.	.	.	.	8ff	8ff	.	4B
8GG	.	16ee	16ee	.	.	.	.	.	.	16ee	16ee	.	.
.	.	16ff	16ff	.	.	.	.	.	.	16ff	16ff	.	.
4C	4c	4ee	4ee	4G 4e	4c	4ee	4cc	4ee	4cc	4ee	4ee	4cc	4c
=33	=33	=33	=33	=33	=33	=33	=33	=33	=33	=33	=33	=33	=33
2.r	4F	4dd	4dd	4f	4F	4ff	4dd	4ff	4dd	4dd	4dd	4ff	4F
.	4G	4cc	4cc	4e	4G	4ee	4cc	4ee	4cc	4cc	4cc	4ee	4G
.	4GG	4b	4b	4d	4GG	4dd	4g	4dd	4g	4b	4b	4dd	4GG
=34	=34	=34	=34	=34	=34	=34	=34	=34	=34	=34	=34	=34	=34
2.r	4C	4cc	4cc	4c	4C	4cc	4e	4cc	4e	4cc	4cc	4cc	4C
.	2r	2r	2r	4g	4E	2r	2r	2r	2r	2r	2r	2r	2r
.	.	.	.	4e	4C	.	.	.	.	.	.	.	.
=35	=35	=35	=35	=35	=35	=35	=35	=35	=35	=35	=35	=35	=35
2.r	2.r	4d	4B	4G	4G	2.r	2.r	2.r	2.r	2.r	4g	2.r	2.r
.	.	4e	4c	2r	2r	.	.	.	.	.	4g	.	.
.	.	4f	4d	.	.	.	.	.	.	.	4g	.	.
=36	=36	=36	=36	=36	=36	=36	=36	=36	=36	=36	=36	=36	=36
2.r	2.r	2f	2d	4c	4C	2.r	2.r	2.r	2.r	2.r	8g	2.r	2.r
.	.	.	.	.	.	.	.	.	.	.	8b	.	.
.	.	.	.	2r	2r	.	.	.	.	.	8cc	.	.
.	.	.	.	.	.	.	.	.	.	.	8dd	.	.
.	.	4e	4c	.	.	.	.	.	.	.	8ee	.	.
.	.	.	.	.	.	.	.	.	.	.	8ff	.	.
=37	=37	=37	=37	=37	=37	=37	=37	=37	=37	=37	=37	=37	=37
2r	2r	4d	4B	4G	4GG	2r	2r	2r	2r	2r	4gg	2r	2r
.	.	4r	4r	4r	4r	.	.	.	.	.	4gg	.	.
8GG	4g	8bb	4ff 4dd 4g	4G	4G	4dd	4g	4dd	4g	4gg	4gg	4gg	4g
8GG	.	16aa	.	.	.	.	.	.	.	.	.	.	.
.	.	16bb	.	.	.	.	.	.	.	.	.	.	.
=38	=38	=38	=38	=38	=38	=38	=38	=38	=38	=38	=38	=38	=38
4C	4e	4ccc	4ee 4g 4cc	4c	4C	4ee	4cc	4ee	4cc	4ee	4ee	4ee	4e
2r	2r	2r	2r	2r	2r	2r	2r	2r	2r	2r	2r	2r	2r
=39	=39	=39	=39	=39	=39	=39	=39	=39	=39	=39	=39	=39	=39
2.r	2.r	4ee	2.r	2.r	2.r	2.r	2.r	2.r	2.r	2.r	4ee	2.r	4e
.	.	8gg	.	.	.	.	.	.	.	.	8gg	.	8g
.	.	8ee	.	.	.	.	.	.	.	.	8ee	.	8e
.	.	8ff	.	.	.	.	.	.	.	.	8ff	.	8f
.	.	8dd	.	.	.	.	.	.	.	.	8dd	.	8d
=40	=40	=40	=40	=40	=40	=40	=40	=40	=40	=40	=40	=40	=40
2.r	2.r	4cc	2.r	2.r	2.r	2.r	2.r	2.r	2.r	2.r	4cc	2.r	4c
.	.	4ee	.	.	.	.	.	.	.	.	4ee	.	4e
.	.	4g	.	.	.	.	.	.	.	.	4g	.	4G
=41	=41	=41	=41	=41	=41	=41	=41	=41	=41	=41	=41	=41	=41
2.r	2.r	4a	2r	2r	2r	2.r	2.r	2.r	2.r	2r	4a	2r	4A
.	.	4b	.	.	.	.	.	.	.	.	4b	.	4B
.	.	4cc#	4A 4g	4e	4A	.	.	.	.	4gg	4cc#	4ee	4c#
=42	=42	=42	=42	=42	=42	=42	=42	=42	=42	=42	=42	=42	=42
2.r	2.r	8dd	4f 4A	4d	4D	2.r	2.r	2.r	2.r	4ff	8dd	4dd	8d
.	.	8cc#	.	.	.	.	.	.	.	.	8cc#	.	8c#
.	.	8dd	2r	2r	2r	.	.	.	.	2r	8dd	2r	8d
.	.	8ee	.	.	.	.	.	.	.	.	8ee	.	8e
.	.	8dd	.	.	.	.	.	.	.	.	8dd	.	8d
.	.	8r	.	.	.	.	.	.	.	.	8r	.	8r
=43	=43	=43	=43	=43	=43	=43	=43	=43	=43	=43	=43	=43	=43
2.r	2.r	4ff	2.r	2.r	2.r	2.r	2.r	2.r	2.r	2.r	4ff	2.r	4f
.	.	8aa	.	.	.	.	.	.	.	.	8aa	.	8a
.	.	8ff	.	.	.	.	.	.	.	.	8ff	.	8f
.	.	8gg	.	.	.	.	.	.	.	.	8gg	.	8g
.	.	8ee	.	.	.	.	.	.	.	.	8ee	.	8e
=44	=44	=44	=44	=44	=44	=44	=44	=44	=44	=44	=44	=44	=44
2.r	2.r	4dd	2.r	2.r	2.r	2.r	2.r	2.r	2.r	2.r	4dd	2.r	4d
.	.	4ff	.	.	.	.	.	.	.	.	4ff	.	4f
.	.	4a	.	.	.	.	.	.	.	.	4a	.	4A
=45	=45	=45	=45	=45	=45	=45	=45	=45	=45	=45	=45	=45	=45
2.r	2.r	4g	2r	2r	2r	2.r	2.r	2.r	2.r	2r	4g	2r	4G
.	.	4a	.	.	.	.	.	.	.	.	4a	.	4A
.	.	4b	4f 4d	4f 4G	4G	.	.	.	.	4ff	4b	4dd	4B
=46	=46	=46	=46	=46	=46	=46	=46	=46	=46	=46	=46	=46	=46
2.r	2.r	8cc	4e 4c	4e 4c	4C	2.r	2.r	2.r	2.r	4ee	8cc	4cc	8c
.	.	8b	.	.	.	.	.	.	.	.	8b	.	8B
.	.	8cc	2r	2r	2r	.	.	.	.	2r	8cc	2r	8c
.	.	8dd	.	.	.	.	.	.	.	.	8dd	.	8d
.	.	8cc	.	.	.	.	.	.	.	.	8cc	.	8c
.	.	8r	.	.	.	.	.	.	.	.	8r	.	8r
=47	=47	=47	=47	=47	=47	=47	=47	=47	=47	=47	=47	=47	=47
2.r	2.r	2.r	2.r	2.r	2.r	2.r	2.r	[2.g	[2.G	4gg	2.r	4gg	2.r
.	.	.	.	.	.	.	.	.	.	4aa	.	4ff#	.
.	.	.	.	.	.	.	.	.	.	4bb	.	4ff	.
=48	=48	=48	=48	=48	=48	=48	=48	=48	=48	=48	=48	=48	=48
2.r	2.r	2.r	2.r	2.r	2.r	2.r	2.r	2.g_	2.G_	8ccc	2.r	4ee-	2.r
.	.	.	.	.	.	.	.	.	.	8bb	.	.	.
.	.	.	.	.	.	.	.	.	.	8ccc	.	4dd	.
.	.	.	.	.	.	.	.	.	.	8ddd	.	.	.
.	.	.	.	.	.	.	.	.	.	8eee-	.	4cc	.
.	.	.	.	.	.	.	.	.	.	8r	.	.	.
=49	=49	=49	=49	=49	=49	=49	=49	=49	=49	=49	=49	=49	=49
2.r	2.r	2.r	2.r	2.r	2.r	2.r	2.r	2.g_	2.G_	2.r	4gg	4b	4G
.	.	.	.	.	.	.	.	.	.	.	4ff#	4cc	4A
.	.	.	.	.	.	.	.	.	.	.	4ff	4dd	4B
=50	=50	=50	=50	=50	=50	=50	=50	=50	=50	=50	=50	=50	=50
2.r	2.r	2.r	2.r	2.r	2.r	2.r	2.r	2.g_	2.G_	2.r	2ee-	2cc	8c
.	.	.	.	.	.	.	.	.	.	.	.	.	8B
.	.	.	.	.	.	.	.	.	.	.	.	.	8c
.	.	.	.	.	.	.	.	.	.	.	.	.	8e-
.	.	.	.	.	.	.	.	.	.	.	4dd	4b	8g
.	.	.	.	.	.	.	.	.	.	.	.	.	8r
=51	=51	=51	=51	=51	=51	=51	=51	=51	=51	=51	=51	=51	=51
2.r	2.r	4gg	4gg	4B	2.G	2.r	2.r	4g]	4G]	4gg	4b	2.r	2.r
.	.	4aa	4ff#	4c	.	.	.	2r	2r	4aa	4cc	.	.
.	.	4bb	4ff	4d	.	.	.	.	.	4bb	4dd	.	.
=52	=52	=52	=52	=52	=52	=52	=52	=52	=52	=52	=52	=52	=52
2.r	2.r	8ccc	4ee-	8e-	2.G	2.r	2.r	2.r	2.r	8ccc	8ee-	2.r	2.r
.	.	8bb	.	8d	.	.	.	.	.	8bb	8dd	.	.
.	.	8ccc	4dd	8e-	.	.	.	.	.	8ccc	8ee-	.	.
.	.	8ddd	.	8f	.	.	.	.	.	8ddd	8ff	.	.
.	.	8eee-	4cc	8g	.	.	.	.	.	8eee-	8gg	.	.
.	.	8r	.	8r	.	.	.	.	.	8r	8r	.	.
=53	=53	=53	=53	=53	=53	=53	=53	=53	=53	=53	=53	=53	=53
2.r	2.r	4gg	4g	4g	4G	2.r	2.r	2.r	2.r	4gg	2.r	2.r	2.r
.	.	4ee-	4e-	4e-	4E-	.	.	.	.	4ee-	.	.	.
.	.	4cc	4c	4c	4C	.	.	.	.	4cc	.	.	.
=54	=54	=54	=54	=54	=54	=54	=54	=54	=54	=54	=54	=54	=54
2.r	2.r	2.g	2.G	2.G	2.GG	2.r	2.r	2.r	2.r	2.g	2.r	2.r	2.r
=55	=55	=55	=55	=55	=55	=55	=55	=55	=55	=55	=55	=55	=55
2.r	4E-	4e- 4b- 4gg	4e- 4gg 4b-	4e-	4E-	2.r	2.r	2g	2G	4gg	4gg	4gg	4E-
.	4G	8bb-	8bb-	4g	4G	.	.	.	.	8bb-	8bb-	8bb-	4G
.	.	8gg	8gg	.	.	.	.	.	.	8gg	8gg	8gg	.
.	4B-	8aa-	8aa-	4d	4B-	.	.	4r	4r	8aa-	8aa-	8aa-	4B-
.	.	8ff	8ff	.	.	.	.	.	.	8ff	8ff	8ff	.
=56	=56	=56	=56	=56	=56	=56	=56	=56	=56	=56	=56	=56	=56
2.r	4e-	4ee-	4ee-	4e-	4e-	2.r	2.r	2.r	2.r	4ee-	4ee-	4ee-	4e-
.	2r	4gg	4gg	2r	2r	.	.	.	.	4gg	4gg	4gg	2r
.	.	4b-	4b-	.	.	.	.	.	.	4b-	4b-	4b-	.
=57	=57	=57	=57	=57	=57	=57	=57	=57	=57	=57	=57	=57	=57
2.r	2f	4aa- 4b- 4d	4aa- 4b- 4d	4f	4BB-	2.r	2.r	2.r	2.r	4aa-	4aa-	4aa-	2f
.	.	8aa-	8aa-	4B-	4D	.	.	.	.	8aa-	8aa-	8aa-	.
.	.	8ff	8ff	.	.	.	.	.	.	8ff	8ff	8ff	.
.	4e-	8gg	8gg	4B-	4E-	.	.	.	.	8gg	8gg	8gg	4e-
.	.	8ee-	8ee-	.	.	.	.	.	.	8ee-	8ee-	8ee-	.
=58	=58	=58	=58	=58	=58	=58	=58	=58	=58	=58	=58	=58	=58
2.r	4B-	4ff	4ff	4B-	4BB-	2.r	2.r	2.r	2.r	4ff	4ff	4ff	4B-
.	2r	4dd	4dd	2r	2r	.	.	.	.	4dd	4dd	4dd	2r
.	.	4b-	4b-	.	.	.	.	.	.	4b-	4b-	4b-	.
=59	=59	=59	=59	=59	=59	=59	=59	=59	=59	=59	=59	=59	=59
2.r	8e-	8gg	8gg	4ee-	4e-	2.r	2.r	2.r	2.r	2.r	2.r	2.r	8g
.	8r	8ee-	8ee-	.	.	.	.	.	.	.	.	.	8r
.	8d	8ff	8ff	4b-	4B-	.	.	.	.	.	.	.	8f
.	8r	8dd	8dd	.	.	.	.	.	.	.	.	.	8r
.	8c	8ee-	8ee-	4cc	4c	.	.	.	.	.	.	.	8e-
.	8r	8cc	8cc	.	.	.	.	.	.	.	.	.	8r
=60	=60	=60	=60	=60	=60	=60	=60	=60	=60	=60	=60	=60	=60
2.r	8B-	8dd	8dd	4g	4G	2.r	2.r	2.r	2.r	2.r	2.r	2.r	8d
.	8r	8b-	8b-	.	.	.	.	.	.	.	.	.	8r
.	8A-	8cc	8cc	4a-	4A-	.	.	.	.	.	.	.	8c
.	8r	8a-	8a-	.	.	.	.	.	.	.	.	.	8r
.	8G	8b-	8b-	4e-	4E-	.	.	.	.	.	.	.	8B-
.	8r	8g	8g	.	.	.	.	.	.	.	.	.	8r
=61	=61	=61	=61	=61	=61	=61	=61	=61	=61	=61	=61	=61	=61
2.r	8F	8a-	8a-	4c	4AA-	2.r	2.r	2.r	2.r	2.r	2.r	2.r	8A-
.	8r	8f	8f	.	.	.	.	.	.	.	.	.	8r
.	8E-	8g	8g	4B-	4BB-	.	.	.	.	.	.	.	8G
.	8r	8e-	8e-	.	.	.	.	.	.	.	.	.	8r
.	8D	8f	8f	4A-	4BB-	.	.	.	.	.	.	.	8F
.	8r	8d	8d	.	.	.	.	.	.	.	.	.	8r
=62	=62	=62	=62	=62	=62	=62	=62	=62	=62	=62	=62	=62	=62
2.r	4E-	4e-	4e-	4G	4E-	2.r	2.r	[2.g	[2.G	2.r	2.r	2.r	4E-
.	2r	2r	2r	2r	8G	.	.	.	.	.	.	.	2r
.	.	.	.	.	8E-	.	.	.	.	.	.	.	.
.	.	.	.	.	8D	.	.	.	.	.	.	.	.
.	.	.	.	.	8C	.	.	.	.	.	.	.	.
=63	=63	=63	=63	=63	=63	=63	=63	=63	=63	=63	=63	=63	=63
2.r	2.r	4gg	2B	[2.G	4GG	2.r	2.r	2.g_	2.G_	4gg	2.r	2.r	2.r
.	.	8gg	.	.	2r	.	.	.	.	8gg	.	.	.
.	.	8dd	.	.	.	.	.	.	.	8dd	.	.	.
.	.	8ee-	4c	.	.	.	.	.	.	8ee-	.	.	.
.	.	8cc	.	.	.	.	.	.	.	8cc	.	.	.
=64	=64	=64	=64	=64	=64	=64	=64	=64	=64	=64	=64	=64	=64
2.r	4g	2b	4g	2.G_	4GG	2.r	2.r	2.g_	2.G_	2b	2.r	2.r	4g
.	8g	.	8g	.	2r	.	.	.	.	.	.	.	8g
.	8d	.	8d	.	.	.	.	.	.	.	.	.	8d
.	8e-	4cc	8e-	.	.	.	.	.	.	4cc	.	.	8e-
.	8c	.	8c	.	.	.	.	.	.	.	.	.	8c
=65	=65	=65	=65	=65	=65	=65	=65	=65	=65	=65	=65	=65	=65
2.r	2B	4r	2B	2.G_	4GG	2.r	2.r	2.g_	2.G_	2.r	4gg	2.r	2B
.	.	4dd	.	.	2r	.	.	.	.	.	8gg	.	.
.	.	.	.	.	.	.	.	.	.	.	8dd	.	.
.	4c	4ee-	4c	.	.	.	.	.	.	.	8ee-	.	4c
.	.	.	.	.	.	.	.	.	.	.	8cc	.	.
=66	=66	=66	=66	=66	=66	=66	=66	=66	=66	=66	=66	=66	=66
2.r	4r	4r	4r	2.G_	4GG	2.r	2.r	2.g_	2.G_	2.r	2b	4gg	4r
.	4B	4b	4d	.	2r	.	.	.	.	.	.	8gg	4B
.	.	.	.	.	.	.	.	.	.	.	.	8dd	.
.	8c	4cc	4e-	.	.	.	.	.	.	.	4cc	8ee-	8c
.	8e-	.	.	.	.	.	.	.	.	.	.	8cc	8e-
=67	=67	=67	=67	=67	=67	=67	=67	=67	=67	=67	=67	=67	=67
2.r	4g	4gg	2B	2.G_	2.GG	2.r	2.r	2.g_	2.G_	4gg	2dd	2b	4g
.	8g	8gg	.	.	.	.	.	.	.	8gg	.	.	8g
.	8d	8dd	.	.	.	.	.	.	.	8dd	.	.	8d
.	8e-	8ee-	4c	.	.	.	.	.	.	8ee-	4ee-	4cc	8e-
.	8c	8cc	.	.	.	.	.	.	.	8cc	.	.	8c
=68	=68	=68	=68	=68	=68	=68	=68	=68	=68	=68	=68	=68	=68
2.r	4g	4gg	2B	2.G]	2.GG	2.r	2.r	2.g_	2.G_	4gg	2ff	2dd	4g
.	8g	8gg	.	.	.	.	.	.	.	8gg	.	.	8g
.	8d	8dd	.	.	.	.	.	.	.	8dd	.	.	8d
.	8e-	8ee-	4c	.	.	.	.	.	.	8ee-	4ee-	4cc	8e-
.	8c	8cc	.	.	.	.	.	.	.	8cc	.	.	8c
=69	=69	=69	=69	=69	=69	=69	=69	=69	=69	=69	=69	=69	=69
2.r	4g	4gg	4g	4G	4GG	2.r	2.r	4g]	4G]	4gg	4dd	4b	4g
.	4g	4gg	4g	4G	4GG	.	.	4g	4G	4gg	4gg	4g	4g
.	4g	4gg	4g	4G	4GG	.	.	4g	4G	4gg	4gg	4g	4g
=70	=70	=70	=70	=70	=70	=70	=70	=70	=70	=70	=70	=70	=70
2.r	4g	4gg	4g	4G	4GG	2.r	2.r	4g	4G	4gg	4gg	4g	4g
.	4f#	4ff#	2r	2r	2r	.	.	2r	2r	2r	4ff#	2r	4f#
.	4f	4ff	.	.	.	.	.	.	.	.	4ff	.	4f
=71	=71	=71	=71	=71	=71	=71	=71	=71	=71	=71	=71	=71	=71
2.r	4e	4ee	2.r	2.r	4C	2.r	2.r	2.r	2.r	2.r	4ee	2.r	4e
.	8g	8gg	.	.	4E	.	.	.	.	.	8gg	.	8g
.	8e	8ee	.	.	.	.	.	.	.	.	8ee	.	8e
.	8f	8ff	.	.	4G	.	.	.	.	.	8ff	.	8f
.	8d	8dd	.	.	.	.	.	.	.	.	8dd	.	8d
=72	=72	=72	=72	=72	=72	=72	=72	=72	=72	=72	=72	=72	=72
2.r	4c	4cc	2.r	2.r	2.c	2.r	2.r	2.r	2.r	2.r	4cc	4cc	4c
.	4e	4ee	.	.	.	.	.	.	.	.	4ee	4ee	4e
.	4G	4g	.	.	.	.	.	.	.	.	4g	4g	4G
=73	=73	=73	=73	=73	=73	=73	=73	=73	=73	=73	=73	=73	=73
2.r	4A	4a	2.g	4c#	4c#	2.r	2.r	2.r	2.r	4gg	4a	4a	4A
.	4B	4b	.	4d	4d	.	.	.	.	4ff	4b	4b	4B
.	4c#	4cc#	.	4e	4e	.	.	.	.	4ee	4cc#	4cc#	4c#
=74	=74	=74	=74	=74	=74	=74	=74	=74	=74	=74	=74	=74	=74
2.r	8d	8dd	4a	4f	4f	2.r	2.r	2.r	2.r	8dd	8dd	8dd	8d
.	8c#	8cc#	.	.	.	.	.	.	.	8cc#	8cc#	8cc#	8c#
.	8d	8dd	2r	2r	2r	.	.	.	.	8dd	8dd	8dd	8d
.	8e	8ee	.	.	.	.	.	.	.	8ee	8ee	8ee	8e
.	8d	8dd	.	.	.	.	.	.	.	8dd	8dd	8dd	8d
.	8r	8r	.	.	.	.	.	.	.	8r	8r	8r	8r
=75	=75	=75	=75	=75	=75	=75	=75	=75	=75	=75	=75	=75	=75
2.r	4f	4ff	2.r	2.r	4D	2.r	2.r	2.r	2.r	2.r	4ff	4ff	4f
.	8a	8aa	.	.	4F	.	.	.	.	.	8aa	8aa	8a
.	8f	8ff	.	.	.	.	.	.	.	.	8ff	8ff	8f
.	8g	8gg	.	.	4A	.	.	.	.	.	8gg	8gg	8g
.	8e	8ee	.	.	.	.	.	.	.	.	8ee	8ee	8e
=76	=76	=76	=76	=76	=76	=76	=76	=76	=76	=76	=76	=76	=76
2.r	4d	4dd	2.r	2.r	2d	2.r	2.r	2.r	2.r	2.r	4dd	4dd	4d
.	4f	4ff	.	.	.	.	.	.	.	.	4ff	4ff	4f
.	4A	4a	.	.	4c	.	.	.	.	.	4a	4a	4A
=77	=77	=77	=77	=77	=77	=77	=77	=77	=77	=77	=77	=77	=77
2.r	4G	4g	2.f	4B	4B	2.r	2.r	2.r	2.r	4bb	4g	4g	4G
.	4A	4a	.	4c	4A	.	.	.	.	4ccc	4a	4a	4A
.	4B	4b	.	4d	4G	.	.	.	.	4ddd	4b	4b	4B
=78	=78	=78	=78	=78	=78	=78	=78	=78	=78	=78	=78	=78	=78
2.r	8c	8cc	4e	4c	4c	2.r	2.r	2.r	2.r	8ccc	8cc	8cc	8c
.	8B	8b	.	.	.	.	.	.	.	8bb	8b	8b	8B
.	8c	8cc	2r	2r	2r	.	.	.	.	8ccc	8cc	8cc	8c
.	8d	8dd	.	.	.	.	.	.	.	8ddd	8dd	8dd	8d
.	8c	8cc	.	.	.	.	.	.	.	8ccc	8cc	8cc	8c
.	8r	8r	.	.	.	.	.	.	.	8r	8r	8r	8r
==	==	==	==	==	==	==	==	==	==	==	==	==	==
*-	*-	*-	*-	*-	*-	*-	*-	*-	*-	*-	*-	*-	*-
!!!RWG1: This file contains only pitch and duration data.
!!!RWG2: Transposing instruments are not transposed.
!!!RWG3: Spines may have incompatible meters.
!!!RWG4: Durations of rests and tied notes may be interpreted.
!!!RWG: Key is interpreted using the Humdrum key tool.
!!!OPT: L'ours
!!!AFT: stage1
!!!END: 1997/04/15
!!format changes:
!!content changes:
!!public access: complete
!!!KEY: 3225635575
!!!EMD: Converted from MuseData to Humdrum Dec 16, 2000, by Andreas Kornstaedt using muse2kern.
